!!!OTL: 601. Matrosenlied.
!!!COM: Fr. Silcher
!!!ODT: 1830
!!!ARE: Europa, Mitteleuropa, Deutschland
!!!SCT: B0601
!!!TXL: @@DE
!!!YEM: Copyright 1995, estate of Helmut Schaffrath.
**kern	**text
*ICvox	*
*Ivox	*
*clefG2	*
*M3/4	*
*k[]	*
*C:	*
!LO:TX:a:t=Gemäßigt.	!
{8.ee	Auf
16dd	dem
=1	=1
4cc	Meer
8gL	bin
8eJ	.
16fL	ich
16gJ	.
16aL	ge-
16bJ	.
=2	=2
8ccL	-bor-
8eJ	.
4g}	-en,
{16gL	auf
16aJ	.
16bL	dem
16ccJ	.
=3	=3
4.dd	Mee-
16eeL	-re
16ddJ	.
8dd	ward
16aL	ich
16bJ	.
=4	=4
4cc	groß;
4r}	.
{8.dd	auf
16ee	dem
=5	=5
4ff	Meer
4dd	hab'
16ccL	ich
16bJ	.
16aL	ge-
16gJ	.
=6	=6
8gL	-ſchwo-
8eeJ	.
4cc}	-ren,
{8.dd	es
16ee	ʒur
=7	=7
4ff	ew'-
4dd	-gen
16ccL	Braut
16bJ	.
16aL	er-
16gJ	.
=8	=8
8gL	-ko-
8eeJ	.
4cc}	-ren;
{8.cc	ſin-
16cc	-ket
=9	=9
8a	drum
16aL	des
16fJ	.
4cc	To-
8bL	-des
8aJ	.
=10	=10
2g}	Loos,
{8.cc	auf
16ee	dem
=11	=11
4dd	Meer
4a	ſtirbt
8b	der
8g	Ma-
=12	=12
2cc}	-tros,
{8.cc	auf
16ee	dem
=13	=13
4gg	Meer
4g	ſtirbt
8.ee	der
16dd	Ma-
=14	=14
2cc}	-tros
==	==
!!!AGN: Staende -, Seemanns - Lied
!!!GTL: Seemanns-, Bergmanns-, Bauern- und Handwerkerlieder
!!!ONB: ESAC (Essen Associative Code) Database: BOEHME
!!!AMT: simple triple
!!!AIN: vox
!!!EED: Helmut Schaffrath
!!!EEV: 1.0
!!Mel. von Silcher. 1830.
!!@@COMMENT:"Textverfaſſer unbekannt. Mit Melodie von Silcher in deſſen Männerliedern V. Nr. 11.
!!Auch in Göpels Lieder- und Commersbuch 1858."
!!@@END:
!!!URL-scan: https://archive.org/details/BoehmeVtLieder1895/page/n477/mode/2up
!!!ENC: Anna Maria Matuszewska
!!!EEV: 2024/15/07
*-	*-
